X: 071606
T: Glencolmcille
T: Gleann Cholm Cille
S: B.Breathnach:"Ceol Rince na hEireann" III/176 
Z: B.Black
L: 1/8
M: 4/4
R: reel
K: D
B,|(3A,B,A, DE FEDF|Adcd BAFA|BABc dBAF|G2 FE DB,A,B,|
DCDE FEDF|Adcd BAFA|(3Bcd ec dBAG|FGEF D3 :|
g|: fded cAAg|fdef gbag|f2 ed cAAF|GBAG FD D2|
fded cAAg|fdfa g2 fg|(3agf (3gfe fded|1 cABc d2 (3efg :|2\ 
cABc dBAF ||
